X: 1
T: Anything For John Joe?
R: reel
M: 4/4
L: 1/8
K: Dmaj
F2AF G2BG|F2AF E2DE|F2AF G2BG|ABcA d4:|
f2f2 e2de|faaf e2de|f2f2 efed|cABc d3e|
f2f2 e2de|faaf e2de|fefg a2a2|ABcA d4||


Tune 3237	Setting 16314

